X:114
T:Her Golden Hair Hanging Down Her Back
R:hornpipe
C:Martin "Junior" Crehan (1908-1998)
H:Also played in Ador, #100
Z:id:hn-hornpipe-114
M:C|
K:Bdor
de | fedf e2dB | AF~F2 ABde | fedf e2de | fbba b2ag |
fedf e2dB | AF~F2 ABde | fedf edBA | B2BA Bc :|
|: de | faab afef | dBAB d2de | fbba b2ag | fedf e2de |
faab afef | dBAB dcde | fedB edBA | B2BA Bc :|

